public/icon/budget.svg

<svg width="29" height="29" viewBox="0 0 29 29" fill="none" xmlns="http://www.w3.org/2000/svg">
<path d="M23.3836 2.07861H5.53214C5.06436 2.07861 4.68329 2.46183 4.68329 2.9296C4.68329 3.39845 5.06436 3.77845 5.53214 3.77845H23.3836C24.574 3.77845 25.5427 4.74826 25.5427 5.9375V14.821H18.7476C18.2777 14.821 17.8988 15.2031 17.8988 15.672C17.8988 16.1408 18.2777 16.5208 18.7476 16.5208H25.5427V16.9094C25.5427 18.1008 24.574 19.0684 23.3836 19.0684H5.6167C4.42746 19.0684 3.45765 18.1008 3.45765 16.9094V16.5208H10.2527C10.7226 16.5208 11.1016 16.1408 11.1016 15.672C11.1016 15.2031 10.7226 14.821 10.2527 14.821H3.45765V5.85401C3.45765 5.38623 3.07658 5.00516 2.60666 5.00516C2.13781 5.00516 1.75781 5.38623 1.75781 5.85401V16.9094C1.75781 19.0385 3.48976 20.7683 5.6167 20.7683H13.6513V25.2212H6.19901C5.72803 25.2212 5.35016 25.6012 5.35016 26.0712C5.35016 26.5389 5.72803 26.9211 6.19901 26.9211H22.9951C23.465 26.9211 23.8439 26.5389 23.8439 26.0712C23.8439 25.6012 23.465 25.2212 22.9951 25.2212H15.349V20.7683H23.3836C25.5106 20.7683 27.2425 19.0385 27.2425 16.9094V5.9375C27.2425 3.81163 25.5106 2.07861 23.3836 2.07861ZM14.5002 13.9721C13.9853 13.9721 13.5668 13.5536 13.5668 13.0387C13.5668 12.5699 13.1868 12.1888 12.7168 12.1888C12.248 12.1888 11.868 12.5699 11.868 13.0387C11.868 14.1916 12.6173 15.1624 13.6513 15.5178V16.0006C13.6513 16.4684 14.0313 16.8494 14.5002 16.8494C14.9701 16.8494 15.349 16.4684 15.349 16.0006V15.5178C16.3841 15.1624 17.1324 14.1916 17.1324 13.0387C17.1324 11.5872 15.9527 10.4065 14.5002 10.4065C13.9853 10.4065 13.5668 9.988 13.5668 9.47419C13.5668 8.95932 13.9853 8.54078 14.5002 8.54078C15.015 8.54078 15.4325 8.95932 15.4325 9.47419C15.4325 9.94304 15.8147 10.323 16.2835 10.323C16.7524 10.323 17.1324 9.94304 17.1324 9.47419C17.1324 8.32134 16.3841 7.35046 15.349 6.99401V6.51339C15.349 6.0424 14.9701 5.66347 14.5002 5.66347C14.0313 5.66347 13.6513 6.0424 13.6513 6.51339V6.99401C12.6173 7.35046 11.868 8.32134 11.868 9.47419C11.868 10.9268 13.0476 12.1042 14.5002 12.1042C15.015 12.1042 15.4325 12.5238 15.4325 13.0387C15.4325 13.5536 15.015 13.9721 14.5002 13.9721Z" fill="white"/>
</svg>

<svg width="29" height="29" fill="none" xmlns="http://www.w3.org/2000/svg"><path d="M23.384 2.079H5.532a.85.85 0 0 0 0 1.7h17.852c1.19 0 2.159.97 2.159 2.159v8.883h-6.795a.85.85 0 0 0 0 1.7h6.795v.388a2.161 2.161 0 0 1-2.16 2.16H5.618c-1.19 0-2.16-.968-2.16-2.16v-.388h6.796a.85.85 0 0 0 0-1.7H3.458V5.854a.85.85 0 0 0-1.7 0v11.055a3.863 3.863 0 0 0 3.859 3.86h8.034v4.452H6.2a.85.85 0 0 0 0 1.7h16.796a.85.85 0 0 0 0-1.7H15.35v-4.453h8.035a3.863 3.863 0 0 0 3.858-3.859V5.938a3.865 3.865 0 0 0-3.858-3.86ZM14.5 13.972a.934.934 0 0 1-.933-.933.85.85 0 0 0-1.699 0c0 1.153.75 2.123 1.783 2.479V16a.85.85 0 0 0 1.698 0v-.483a2.625 2.625 0 0 0 1.783-2.48 2.634 2.634 0 0 0-2.632-2.632.934.934 0 0 1 0-1.865c.515 0 .932.418.932.933a.85.85 0 0 0 1.7 0 2.628 2.628 0 0 0-1.783-2.48v-.48a.848.848 0 1 0-1.698 0v.48a2.629 2.629 0 0 0-1.783 2.48c0 1.453 1.18 2.63 2.632 2.63a.934.934 0 0 1 0 1.868Z" fill="#fff"/></svg>
